X:9
T: Graf und Nonne (Die Nonne)
N: Q0155H
O: Mitteleuropa, Deutschland (BRD) , Rheinland - Pfalz, Simmern, Laubach
N: Pause am Schluss der vierten und letzten Zeile angefuegt.
N: Eingeklammerte Pausen gespielt.
R: Ballade, Standesunterschied, vergebliche Werbung, Liebe, Klage
M: 6/8
L: 1/16
K: G
D2 | B4B2B2A2G2 | A2A4z2
D3D | c4c2d4A2 | B8z2
d2 | d2c2B2B2c2d2 | e6e2d2
B2 | d2d2d2d2c2c2 | B8z2
d2 | d2c2B2B2c2d2 | e6e2d2
B2 | d2d2d2d2c2c2 | B8z2

